X: 50
T:Castle Kelly
M:4/4
L:1/8
Q:100
K:A dor
A2 cA ~A2 cA | GE ~E2 G2 EG |  A2 cA GAcd | (3efg dB BAdB | 
A2 cA ~A2 cA | GBEF  G2 EG |  A2 cA GAcd | egdB BA ~A2 |
age^c ~d2 ef | cAGE ~G2 G2 |  age^c ~d2 cd | eaag a2 bg |
age^c ~d2 ef | cAGE G2 EG | A2 cA GAcd | egdB BA ~A2 |
